img/service-funeral.svg

<svg width="64" height="64" viewBox="0 0 64 64" fill="none" xmlns="http://www.w3.org/2000/svg">
<path d="M63.8101 15.073L53.3321 48.146L53.5791 48.926C53.7393 49.4264 53.7986 49.9537 53.7536 50.4772C53.7086 51.0008 53.5603 51.5102 53.3171 51.976C52.9241 52.732 52.3171 53.329 51.5701 53.704L51.5611 53.737L49.1941 61.207C48.8722 62.2171 48.1632 63.0585 47.2223 63.5469C46.2815 64.0354 45.1853 64.131 44.1741 63.813L32.0001 59.957L19.8261 63.813C18.8148 64.131 17.7187 64.0354 16.7778 63.5469C15.8369 63.0585 15.1279 62.2171 14.8061 61.207L0.188058 15.074C0.0280711 14.5735 -0.0310613 14.0462 0.0140824 13.5227C0.0592262 12.9991 0.20775 12.4897 0.451058 12.024C0.69167 11.5566 1.02267 11.1416 1.42487 10.8031C1.82706 10.4646 2.29245 10.2093 2.79406 10.052L33.9431 0.187C34.9542 -0.131631 36.0504 -0.0363451 36.9915 0.451969C37.9325 0.940283 38.6415 1.78178 38.9631 2.792L39.0401 3.034C39.0491 3.036 39.0581 3.037 39.0661 3.04L61.2061 10.053C61.7073 10.2103 62.1723 10.4654 62.5743 10.8035C62.9763 11.1417 63.3073 11.5561 63.5481 12.023C64.0401 12.973 64.1331 14.055 63.8101 15.073ZM48.4441 54.75L36.4161 58.559L44.9781 61.271C45.3153 61.3777 45.6811 61.3463 45.9951 61.1835C46.3092 61.0208 46.5458 60.7401 46.6531 60.403L48.4441 54.75ZM51.0371 49.732L36.4211 3.598C36.3142 3.26106 36.078 2.98029 35.7644 2.81736C35.4507 2.65442 35.0852 2.62264 34.7481 2.729L3.60006 12.595C3.26006 12.702 2.98306 12.935 2.81906 13.252C2.73787 13.4073 2.68829 13.5771 2.67319 13.7517C2.65808 13.9263 2.67775 14.1021 2.73106 14.269L17.3471 60.402C17.5691 61.103 18.3201 61.492 19.0211 61.271L31.5611 57.299C31.5891 57.289 31.6171 57.279 31.6461 57.272L50.1691 51.405C50.5091 51.298 50.7861 51.065 50.9491 50.748C51.1141 50.432 51.1451 50.071 51.0371 49.731V49.732ZM48.4971 32.885L53.4461 17.265L42.4451 13.781L48.4971 32.885ZM61.1801 13.25C61.0998 13.0945 60.9896 12.9565 60.8557 12.8439C60.7218 12.7313 60.567 12.6464 60.4001 12.594L40.0231 6.14L41.4691 10.701C41.5571 10.711 41.6451 10.729 41.7321 10.757L54.2501 14.722C54.5841 14.8269 54.894 14.9969 55.1619 15.2223C55.4299 15.4477 55.6505 15.7239 55.8111 16.035C55.9734 16.3456 56.0726 16.6852 56.1028 17.0344C56.133 17.3835 56.0937 17.7352 55.9871 18.069L49.8951 37.297L51.9331 43.731L61.2681 14.267C61.3751 13.927 61.3441 13.567 61.1801 13.25ZM30.9401 23.336C31.5152 23.6323 32.0259 24.0398 32.4425 24.5349C32.8591 25.0299 33.1733 25.6027 33.3671 26.22C33.5725 26.8654 33.633 27.5483 33.5443 28.2198C33.4557 28.8913 33.22 29.535 32.8541 30.105L29.6411 35.126C29.3916 35.5142 29.0489 35.8336 28.6441 36.0552C28.2393 36.2767 27.7855 36.3932 27.3241 36.394C26.9701 36.394 26.6161 36.326 26.2841 36.19L20.7651 33.936C20.1378 33.6806 19.5745 33.29 19.1154 32.792C18.6563 32.2941 18.3127 31.701 18.1091 31.055C17.9119 30.4388 17.8389 29.7897 17.8943 29.1451C17.9498 28.5006 18.1326 27.8734 18.4321 27.3C18.7284 26.7249 19.1359 26.2142 19.631 25.7976C20.126 25.3811 20.6988 25.0668 21.3161 24.873C22.3839 24.5378 23.5338 24.5745 24.5781 24.977C25.1998 24.0462 26.1189 23.3539 27.1851 23.013C27.8013 22.8161 28.4504 22.7433 29.0949 22.7987C29.7394 22.8541 30.3665 23.0368 30.9401 23.336ZM30.8251 27.025C30.7361 26.742 30.5919 26.4795 30.4009 26.2526C30.2098 26.0257 29.9757 25.8389 29.7121 25.703C29.4491 25.5656 29.1615 25.4818 28.8659 25.4564C28.5703 25.431 28.2726 25.4645 27.9901 25.555C27.6178 25.6716 27.2823 25.8833 27.0168 26.1692C26.7513 26.455 26.565 26.8051 26.4761 27.185C26.4221 27.4083 26.3114 27.6139 26.1547 27.7819C25.998 27.9499 25.8006 28.0747 25.5816 28.1441C25.3626 28.2135 25.1294 28.2251 24.9045 28.178C24.6797 28.1309 24.4708 28.0265 24.2981 27.875C24.0064 27.6158 23.6523 27.4371 23.2705 27.3565C22.8888 27.2758 22.4926 27.296 22.1211 27.415C21.838 27.5042 21.5755 27.6487 21.3488 27.8401C21.122 28.0315 20.9355 28.266 20.8001 28.53C20.6627 28.793 20.5789 29.0806 20.5535 29.3762C20.5281 29.6718 20.5616 29.9694 20.6521 30.252C20.8271 30.805 21.2371 31.249 21.7751 31.469L27.2931 33.723C27.3114 33.731 27.3322 33.7317 27.3511 33.725C27.3696 33.7194 27.3856 33.7074 27.3961 33.691L30.6091 28.669C30.9231 28.179 31.0021 27.581 30.8261 27.027L30.8251 27.025ZM44.1721 40.932C44.2788 41.2656 44.3183 41.6171 44.2882 41.966C44.2582 42.315 44.1592 42.6545 43.9971 42.965C43.8365 43.2764 43.6158 43.5529 43.3477 43.7785C43.0796 44.004 42.7694 44.1742 42.4351 44.279L21.2401 50.994C20.5659 51.2062 19.835 51.1426 19.2077 50.817C18.5803 50.4914 18.1076 49.9305 17.8931 49.257L8.01306 18.07C7.90624 17.7362 7.8667 17.3846 7.89674 17.0355C7.92678 16.6863 8.0258 16.3466 8.18806 16.036C8.34862 15.7249 8.56923 15.4487 8.83717 15.2233C9.1051 14.9979 9.41503 14.8279 9.74906 14.723L30.9451 8.009C31.6194 7.79619 32.3506 7.85955 32.9782 8.18519C33.6059 8.51083 34.0788 9.07215 34.2931 9.746L44.1721 40.932ZM41.6301 41.737L31.7501 10.551L21.9781 13.645L10.5531 17.264L20.4331 48.45L41.6301 41.737Z" fill="#3172B9"/>
</svg>

<svg width="64" height="64" viewBox="0 0 64 64" fill="none" xmlns="http://www.w3.org/2000/svg"><path d="M63.81 15.073 53.332 48.146l.247.78a3.972 3.972 0 0 1-.263 3.05 3.97 3.97 0 0 1-1.747 1.728l-.009.033-2.366 7.47a4.007 4.007 0 0 1-5.02 2.606L32 59.957l-12.174 3.856a4.007 4.007 0 0 1-5.02-2.606L.188 15.074a3.974 3.974 0 0 1 .263-3.05 3.972 3.972 0 0 1 2.344-1.972L33.944.187a4.005 4.005 0 0 1 5.02 2.605l.076.242c.01.002.018.003.026.006l22.14 7.013a3.975 3.975 0 0 1 2.342 1.97c.492.95.585 2.032.262 3.05zM48.444 54.75l-12.028 3.81 8.562 2.71a1.335 1.335 0 0 0 1.675-.867l1.791-5.653zm2.593-5.018L36.421 3.598a1.335 1.335 0 0 0-1.672-.87L3.6 12.596a1.32 1.32 0 0 0-.78.657 1.325 1.325 0 0 0-.089 1.017L17.348 60.4c.222.7.973 1.09 1.674.87l12.541-3.973c.03-.01.057-.02.086-.028l18.523-5.867c.34-.107.616-.34.78-.657a1.32 1.32 0 0 0 .087-1.017v.002zm-2.54-16.847 4.95-15.62-11.002-3.484 6.052 19.105zM61.18 13.25a1.325 1.325 0 0 0-.78-.656L40.023 6.14l1.446 4.56c.087.01.175.03.262.057l12.518 3.965a2.65 2.65 0 0 1 1.561 1.313 2.65 2.65 0 0 1 .177 2.034l-6.092 19.227 2.038 6.434 9.335-29.463c.107-.34.076-.7-.088-1.017zM30.94 23.336a4.89 4.89 0 0 1 2.427 2.884 4.606 4.606 0 0 1-.513 3.885l-3.213 5.02a2.76 2.76 0 0 1-2.316 1.27c-.354 0-.708-.07-1.04-.205l-5.519-2.254a4.606 4.606 0 0 1-2.656-2.88 4.892 4.892 0 0 1 .322-3.756 4.89 4.89 0 0 1 2.884-2.427 4.95 4.95 0 0 1 3.262.104 4.946 4.946 0 0 1 2.607-1.964 4.897 4.897 0 0 1 3.755.323zm-.115 3.69a2.245 2.245 0 0 0-1.113-1.323 2.242 2.242 0 0 0-1.722-.148 2.243 2.243 0 0 0-1.514 1.63 1.335 1.335 0 0 1-2.178.69 2.245 2.245 0 0 0-2.177-.46 2.24 2.24 0 0 0-1.32 1.115 2.242 2.242 0 0 0-.148 1.722c.175.553.585.997 1.123 1.217l5.518 2.253a.08.08 0 0 0 .058.002.08.08 0 0 0 .046-.034l3.213-5.02c.313-.49.392-1.09.216-1.643v-.002zM44.172 40.93a2.647 2.647 0 0 1-.175 2.033 2.652 2.652 0 0 1-1.562 1.314L21.24 50.993a2.67 2.67 0 0 1-3.347-1.737L8.013 18.07a2.65 2.65 0 0 1 .175-2.034 2.65 2.65 0 0 1 1.561-1.313L30.944 8.01a2.67 2.67 0 0 1 3.348 1.736l9.88 31.186zm-2.542.805L31.75 10.55l-9.772 3.095-11.425 3.62 9.88 31.185 21.197-6.713z" fill="#3172B9"/></svg>
